projects/seb-pictograms/svg/regular/61-Picto-Regular_black.svg

<svg xmlns="http://www.w3.org/2000/svg" viewBox="0 0 170 170"><path d="M77 135.2h16.1v6H77z"/><path d="M111.9 14.5H58.1a14 14 0 00-14 14v113a14 14 0 0014 14H112a14 14 0 0014-14v-113a14 14 0 00-14.1-14zm-53.9 6h53.9a8 8 0 018 8v12.9H50.1V28.5a8 8 0 018-8zm61.9 26.9v74.9H50.1V47.4zm-8 102.1H58.1a8 8 0 01-8-8v-13.2H120v13.2a8 8 0 01-8.1 8z"/></svg>

<svg id="PIKTO_REGULAR" xmlns="http://www.w3.org/2000/svg" viewBox="0 0 170 170"><title>regular_black</title><rect x="77" y="135.2" width="16.1" height="6"/><path d="M111.9,14.5H58.1a14,14,0,0,0-14,14v113a14,14,0,0,0,14,14h53.9a14,14,0,0,0,14-14V28.5A14,14,0,0,0,111.9,14.5Zm-53.9,6h53.9a8,8,0,0,1,8,8V41.4H50.1V28.5A8,8,0,0,1,58.1,20.5Zm61.9,26.9v74.9H50.1V47.4Zm-8,102.1H58.1a8,8,0,0,1-8-8V128.3h69.9v13.2A8,8,0,0,1,111.9,149.5Z"/></svg>
